jsapp/svg-icons/view-all-alt.svg

<svg height="40" viewBox="0 0 40 40" width="40" xmlns="http://www.w3.org/2000/svg"><path d="m18.9952652 14h13.9867424v-2h-13.9867424zm0 7h13.9867424v-2h-13.9867424zm0 7v-2h13.9867424v2zm-1.7095509-1-.1946048.2575c-.0843918.1115-2.1053847 2.7425-4.9482524 2.7425-2.8428676 0-4.86386056-2.631-4.94825229-2.7425l-.19460481-.2575.19460481-.2575c.08439173-.1115 2.10538469-2.7425 4.94825229-2.7425 2.8428677 0 4.8638606 2.631 4.9482524 2.7425zm-5.1428572 2.1736806c1.8350911 0 3.3936523-1.5286409 3.9686156-2.1736806-.5749633-.6439529-2.1335245-2.1736806-3.9686156-2.1736806s-3.3936522 1.5297277-3.96861547 2.1736806c.57496327.6450397 2.13352437 2.1736806 3.96861547 2.1736806zm0-.8879663c-.7100803 0-1.2857142-.5756339-1.2857142-1.2857143s.5756339-1.2857143 1.2857142-1.2857143c.7100804 0 1.2857143.5756339 1.2857143 1.2857143s-.5756339 1.2857143-1.2857143 1.2857143zm5.1428572-8.2857143-.1946048.2575c-.0843918.1115-2.1053847 2.7425-4.9482524 2.7425-2.8428676 0-4.86386056-2.631-4.94825229-2.7425l-.19460481-.2575.19460481-.2575c.08439173-.1115 2.10538469-2.7425 4.94825229-2.7425 2.8428677 0 4.8638606 2.631 4.9482524 2.7425zm-5.1428572 2.1736806c1.8350911 0 3.3936523-1.5286409 3.9686156-2.1736806-.5749633-.6439529-2.1335245-2.1736806-3.9686156-2.1736806s-3.3936522 1.5297277-3.96861547 2.1736806c.57496327.6450397 2.13352437 2.1736806 3.96861547 2.1736806zm0-.8879663c-.7100803 0-1.2857142-.5756339-1.2857142-1.2857143s.5756339-1.2857143 1.2857142-1.2857143c.7100804 0 1.2857143.5756339 1.2857143 1.2857143s-.5756339 1.2857143-1.2857143 1.2857143zm5.1428572-8.2857143-.1946048.2575c-.0843918.1115-2.1053847 2.7425-4.9482524 2.7425-2.8428676 0-4.86386056-2.631-4.94825229-2.7425l-.19460481-.2575.19460481-.2575c.08439173-.1115 2.10538469-2.7425 4.94825229-2.7425 2.8428677 0 4.8638606 2.631 4.9482524 2.7425zm-5.1428572 2.1736806c1.8350911 0 3.3936523-1.5286409 3.9686156-2.1736806-.5749633-.6439529-2.1335245-2.1736806-3.9686156-2.1736806s-3.3936522 1.5297277-3.96861547 2.1736806c.57496327.6450397 2.13352437 2.1736806 3.96861547 2.1736806zm0-.8879663c-.7100803 0-1.2857142-.5756339-1.2857142-1.2857143s.5756339-1.2857143 1.2857142-1.2857143c.7100804 0 1.2857143.5756339 1.2857143 1.2857143s-.5756339 1.2857143-1.2857143 1.2857143z" fill-rule="evenodd"/></svg>

<?xml version="1.0" encoding="UTF-8"?>
<svg width="40px" height="40px" viewBox="0 0 40 40" version="1.1" xmlns="http://www.w3.org/2000/svg" xmlns:xlink="http://www.w3.org/1999/xlink">
    <!-- Generator: Sketch 50.2 (55047) - http://www.bohemiancoding.com/sketch -->
    <title>Icons/view-all-alt</title>
    <desc>Created with Sketch.</desc>
    <defs>
        <path d="M18.9952652,14 L32.9820076,14 L32.9820076,12 L18.9952652,12 L18.9952652,14 Z M18.9952652,21 L32.9820076,21 L32.9820076,19 L18.9952652,19 L18.9952652,21 Z M18.9952652,28 L18.9952652,26 L32.9820076,26 L32.9820076,28 L18.9952652,28 Z M17.2857143,27 L17.0911095,27.2575 C17.0067177,27.369 14.9857248,30 12.1428571,30 C9.2999895,30 7.27899654,27.369 7.19460481,27.2575 L7,27 L7.19460481,26.7425 C7.27899654,26.631 9.2999895,24 12.1428571,24 C14.9857248,24 17.0067177,26.631 17.0911095,26.7425 L17.2857143,27 Z M12.1428571,29.1736806 C13.9779482,29.1736806 15.5365094,27.6450397 16.1114727,27 C15.5365094,26.3560471 13.9779482,24.8263194 12.1428571,24.8263194 C10.307766,24.8263194 8.7492049,26.3560471 8.17424163,27 C8.7492049,27.6450397 10.307766,29.1736806 12.1428571,29.1736806 Z M12.1428571,28.2857143 C11.4327768,28.2857143 10.8571429,27.7100804 10.8571429,27 C10.8571429,26.2899196 11.4327768,25.7142857 12.1428571,25.7142857 C12.8529375,25.7142857 13.4285714,26.2899196 13.4285714,27 C13.4285714,27.7100804 12.8529375,28.2857143 12.1428571,28.2857143 Z M17.2857143,20 L17.0911095,20.2575 C17.0067177,20.369 14.9857248,23 12.1428571,23 C9.2999895,23 7.27899654,20.369 7.19460481,20.2575 L7,20 L7.19460481,19.7425 C7.27899654,19.631 9.2999895,17 12.1428571,17 C14.9857248,17 17.0067177,19.631 17.0911095,19.7425 L17.2857143,20 Z M12.1428571,22.1736806 C13.9779482,22.1736806 15.5365094,20.6450397 16.1114727,20 C15.5365094,19.3560471 13.9779482,17.8263194 12.1428571,17.8263194 C10.307766,17.8263194 8.7492049,19.3560471 8.17424163,20 C8.7492049,20.6450397 10.307766,22.1736806 12.1428571,22.1736806 Z M12.1428571,21.2857143 C11.4327768,21.2857143 10.8571429,20.7100804 10.8571429,20 C10.8571429,19.2899196 11.4327768,18.7142857 12.1428571,18.7142857 C12.8529375,18.7142857 13.4285714,19.2899196 13.4285714,20 C13.4285714,20.7100804 12.8529375,21.2857143 12.1428571,21.2857143 Z M17.2857143,13 L17.0911095,13.2575 C17.0067177,13.369 14.9857248,16 12.1428571,16 C9.2999895,16 7.27899654,13.369 7.19460481,13.2575 L7,13 L7.19460481,12.7425 C7.27899654,12.631 9.2999895,10 12.1428571,10 C14.9857248,10 17.0067177,12.631 17.0911095,12.7425 L17.2857143,13 Z M12.1428571,15.1736806 C13.9779482,15.1736806 15.5365094,13.6450397 16.1114727,13 C15.5365094,12.3560471 13.9779482,10.8263194 12.1428571,10.8263194 C10.307766,10.8263194 8.7492049,12.3560471 8.17424163,13 C8.7492049,13.6450397 10.307766,15.1736806 12.1428571,15.1736806 Z M12.1428571,14.2857143 C11.4327768,14.2857143 10.8571429,13.7100804 10.8571429,13 C10.8571429,12.2899196 11.4327768,11.7142857 12.1428571,11.7142857 C12.8529375,11.7142857 13.4285714,12.2899196 13.4285714,13 C13.4285714,13.7100804 12.8529375,14.2857143 12.1428571,14.2857143 Z" id="path-1"></path>
    </defs>
    <g id="Icons/view-all-alt" stroke="none" stroke-width="1" fill="none" fill-rule="evenodd">
        <mask id="mask-2" fill="white">
            <use xlink:href="#path-1"></use>
        </mask>
        <use id="Combined-Shape" fill="#000000" xlink:href="#path-1"></use>
    </g>
</svg>
